static/assets/img/icons/theme/electric/hair-dryer.svg

<svg height="24" viewBox="0 0 24 24" width="24" xmlns="http://www.w3.org/2000/svg"><g fill="none" fill-rule="evenodd"><path d="m0 0h24v24h-24z" opacity="0"/><g fill="#000"><path d="m4.58533569 12.781583 4.82962913-1.2940953 1.92335448 7.1780567c.3573545 1.3336653-.4341017 2.7045077-1.76776694 3.0618622-1.33366526.3573545-2.70450765-.4341017-3.06186218-1.7677669zm7.79728131 1.6299893c.6668327-.1786773 1.3522539.2170508 1.5309311.8838835l.1294096.4829629c.1786772.6668326-.2170509 1.3522538-.8838835 1.5309311-.6668327.1786772-1.3522539-.2170509-1.5309311-.8838835l-.1294095-.4829629c-.1786773-.6668326.2170508-1.3522538.8838834-1.5309311zm5.617383-8.4115723 3-1v7l-3-1z" opacity=".3"/><path d="m8.44472222 4.77781746 8.55527778 1.22218254v5l-8.71161829 2.4890338c-2.20308253.6294521-4.49930558-.6462273-5.12875774-2.8493099-.10589919-.3706471-.15962397-.75424503-.15962397-1.1397239 0-2.63446713 2.13565758-4.77012471 4.77012471-4.77012471.22571691 0 .45114917.01602098.67459751.04794217zm-1.44472222 6.22218254c1.1045695 0 2-.8954305 2-2s-.8954305-2-2-2-2 .8954305-2 2 .8954305 2 2 2z"/></g></g></svg>

<svg width="24px" height="24px" viewBox="0 0 24 24" version="1.1" xmlns="http://www.w3.org/2000/svg" xmlns:xlink="http://www.w3.org/1999/xlink">
    <title>Icon For Нair-dryer</title>
    <g stroke="none" stroke-width="1" fill="none" fill-rule="evenodd">
        <rect opacity="0" x="0" y="0" width="24" height="24"></rect>
        <path d="M4.58533569,12.781583 L9.41496482,11.4874877 L11.3383193,18.6655444 C11.6956738,19.9992097 10.9042176,21.3700521 9.57055236,21.7274066 C8.2368871,22.0847611 6.86604471,21.2933049 6.50869018,19.9596397 L4.58533569,12.781583 Z M12.382617,14.4115723 C13.0494497,14.232895 13.7348709,14.6286231 13.9135481,15.2954558 L14.0429577,15.7784187 C14.2216349,16.4452513 13.8259068,17.1306725 13.1590742,17.3093498 C12.4922415,17.488027 11.8068203,17.0922989 11.6281431,16.4254663 L11.4987336,15.9425034 C11.3200563,15.2756708 11.7157844,14.5902496 12.382617,14.4115723 Z M18,6 L21,5 L21,12 L18,11 L18,6 Z" fill="#000000" opacity="0.3"></path>
        <path d="M8.44472222,4.77781746 L17,6 L17,11 L8.28838171,13.4890338 C6.08529918,14.1184859 3.78907613,12.8428065 3.15962397,10.6397239 C3.05372478,10.2690768 3,9.88547887 3,9.5 C3,6.86553287 5.13565758,4.72987529 7.77012471,4.72987529 C7.99584162,4.72987529 8.22127388,4.74589627 8.44472222,4.77781746 Z M7,11 C8.1045695,11 9,10.1045695 9,9 C9,7.8954305 8.1045695,7 7,7 C5.8954305,7 5,7.8954305 5,9 C5,10.1045695 5.8954305,11 7,11 Z" fill="#000000"></path>
    </g>
</svg>
